tbh.svg

<svg xmlns="http://www.w3.org/2000/svg" width="512" height="512" viewBox="0 0 512 512" style="fill:none;stroke:none"><path d="M281.96 493.82c-4.65-3.39-8.96-6.76-8.96-6.76-.65-.77-5.77-4.91-9.98-8.06-1.84-1.38-3.83-2.96-4.43-3.52s-5.14-4.11-10.09-7.9-9.5-7.49-10.11-8.23-1.62-1.35-2.25-1.35-1.93-.79-2.9-1.76-3.34-2.86-5.25-4.21c-1.92-1.34-3.99-3.05-3.99-3.05s-3.65-3-7.5-5.92-7.36-5.93-7.8-6.68c-.58-1-1.2-77.33-.75-92.51.03-1.03 4.87-4.26 13.3-8.88 7.29-3.99 13.75-7.88 13.75-7.88s3.07-1.91 6.21-3.47 6.23-3.47 6.87-4.24 2.01-1.4 3.04-1.4c1.04 0 1.88-.45 1.88-1s.52-1 1.16-1c.63 0 2.54-1.06 4.25-2.36 1.7-1.29 3.99-2.64 5.1-2.99 1.1-.35 4.41-2.21 7.34-4.14s5.64-3.51 5.64-3.51 3.73-2.01 15.51-8.96c8.3-4.91 29.89-16.9 31.25-17.37.96-.34 1.75-1.02 1.75-1.53s1.69-1.66 3.75-2.56 5.77-2.96 8.25-4.59c2.48-1.62 5.4-3.36 6.51-3.85 1.1-.5 4.48-2.37 7.5-4.16 3.02-1.8 7.51-4.39 9.99-5.76s6.3-3.55 8.5-4.85c2.2-1.31 5.35-3.08 7-3.94s4.64-2.55 6.65-3.75c9.99-5.96 16.77-9.68 17.68-9.68.55 0 1.34-.84 1.34-.84s3.93-2.78 8.33-5.16c4.4-2.37 8.5-4.93 8.5-4.93s1.62-1.18 3-1.87c2.82-1.42 9.07-5.03 17.68-10.19 3.2-1.92 6.5-3.84 7.32-4.26.82-.43 2.85-1.65 4.5-2.73s4.56-2.66 6.46-3.53c1.91-.86 4-2.29 4-2.29.72-.95 12.09-7.85 15.14-9.18 1.32-.57 4.2-2.17 6.4-3.55s5.12-3.04 6.5-3.69c1.38-.64 3.25-1.79 4.17-2.56 1.41-1.17 27.76-1.37 170-1.32 92.58.04 169.08.08 169.08.08s.75 14.76.76 32.77l.01 32.75-19.76 19.36c-10.87 10.65-31.52 30.9-45.89 45s-27.87 27.21-30 29.14l-3.87 3.5-19.5.24c-10.73.13-48.3.36-83.5.5l-64 .26-3.12 2.23c-1.72 1.22-4.19 2.68-5.5 3.24-1.31.57-3.27 1.59-4.37 2.28-10.93 6.88-16.02 9.75-16.02 9.75s-3.4 1.8-6.99 4-7.01 4-7.01 4-3.63 2.02-7.49 4.5-7.42 4.5-7.42 4.5-4.94 2.7-10.5 6-10.55 6-11.09 6c-.55 0-.99.83-.99.83s-1.24 1.47-2.75 2.25S481 391 481 391s-2.52 1.54-5 2.8c-6.89 3.53-11.87 6.29-20.03 11.12-4.11 2.43-11.07 6.55-15.47 9.14-4.4 2.6-11.48 6.8-15.73 9.33-4.26 2.54-8.19 4.61-8.75 4.61s-1.02.88-1.02.88-.79 1.14-1.75 1.44c-1.95.62-7.35 3.67-27.25 15.38-7.43 4.37-15.98 9.26-19 10.86-3.02 1.61-6 3.45-6 3.45s-5.9 3.63-12.5 7.41-12.5 7.48-12.5 7.48-2.14 1.5-4.14 2.6c-2.01 1.1-8.98 5.12-15.5 8.92-11.39 6.65-24.27 13.53-25.4 13.56 0 0-4.35-2.76-9-6.16" style="fill-opacity:1;fill:#fcfcfc" transform="matrix(.49901 0 0 .4989 0 23.766)"/><path d="M413.6 841.16c-.33-.52-.6-81.36-.61-179.64l-.01-178.68 2.26-1.89c1.24-1.03 3.04-1.92 3.04-1.92.68-.03 16.56-9.09 27.57-15.73 2.01-1.21 4.33-2.53 5.15-2.92s3.38-1.99 5.68-3.55 4.67-2.83 4.67-2.83 4.38-2.36 9.14-5.25c4.75-2.89 10.29-6.23 12.32-7.43 9-5.33 10.78-6.4 12.19-7.33 1.35-.89 4.37-2.59 19-10.74 2.48-1.38 5.17-3.01 6-3.63 1.46-1.09 2.42-1.66 9.89-5.83 1.98-1.1 5.55-3.31 7.91-4.9 2.37-1.59 4.93-2.89 5.69-2.89.77 0 1.65-.41 1.95-.91.64-1.03 20.1-12.65 30.56-18.25 1.92-1.03 4.27-2.41 5.2-3.07.94-.66 2.01-.9 2.38-.52.76.75.77 6.09.47 152.75-.12 58.02.04 116.08.36 129 .31 12.92.86 34.87 1.21 48.76l.63 25.26-3.79 3.58c-2.08 1.96-4.73 3.98-5.87 4.48-1.15.51-2.76 1.36-3.59 1.9-4.01 2.63-25.46 15.02-25.46 15.02s-2.96 1.58-5.97 3.5-6 3.5-6 3.5-3.48 1.8-7.07 4-6.95 4-6.95 4c-.83 0-11.06 6.52-11.38 7.25 0 0-.86.75-1.5.75s-3.87 1.64-7.17 3.64-7.57 4.55-9.5 5.67-5.3 3.07-7.5 4.35c-2.2 1.27-4.68 2.62-5.5 3s-2 1.38-2 1.38-3.24 2.2-6.59 4.07c-5.3 2.95-15.02 8.65-36.41 21.36-3.02 1.79-7.65 4.45-10.28 5.9-2.63 1.44-5.86 3.33-7.16 4.18-1.39.91-2.62 1.16-2.96.61" style="fill-opacity:1;fill:#fcfcfc" transform="matrix(.49901 0 0 .4989 0 23.766)"/></svg>

<?xml version='1.0' encoding='utf-8'?>
<svg xmlns:inkscape="http://www.inkscape.org/namespaces/inkscape" xmlns:sodipodi="http://sodipodi.sourceforge.net/DTD/sodipodi-0.dtd" xmlns="http://www.w3.org/2000/svg" width="512" height="512" viewBox="0 0 512 512" version="1.1" inkscape:export-xdpi="96" inkscape:export-ydpi="96" style="fill: none; stroke: none"><defs /><sodipodi:namedview inkscape:pagecheckerboard="true" borderlayer="true" bordercolor="#666666" pagecolor="#ffffff" /><g inkscape:groupmode="layer" id="g_1" transform="matrix(0.37427, 0.0, 0.0, 0.37427, 0.0, 23.766)" inkscape:label="PreCompLayer"><g inkscape:groupmode="layer" id="surface32689" inkscape:label="surface32689" transform="matrix(1.3333000000000002, 0.0, 0.0, 1.3330000000000002, 0.0, 0.0)" style=""><g id="g_2" inkscape:label="surface32689" transform="matrix(1.0, 0.0, 0.0, 1.0, 0.0, 0.0)" style=""><g id="g_3" transform="matrix(1.0, 0.0, 0.0, 1.0, 0.0, 0.0)" style="fill-opacity:1.0;fill:rgb(252, 252, 252)"><path d="M 281.96,493.82 C 277.31,490.43 273,487.06 273,487.06 C 272.35,486.29 267.22999999999996,482.15 263.02,479 C 261.18,477.62 259.19,476.04 258.59,475.48 C 257.98999999999995,474.92 253.45,471.37 248.5,467.58 C 243.55,463.78999999999996 239.0,460.09000000000003 238.39,459.35 C 237.77999999999997,458.61 236.76999999999998,458 236.14,458 C 235.51,458 234.21,457.21000000000004 233.24,456.24 C 232.27,455.27 229.9,453.38 227.99,452.03 C 226.07000000000002,450.69 224,448.98 224,448.98 C 224,448.98 220.35,445.98 216.5,443.06 C 212.65,440.14 209.14,437.13 208.7,436.38 C 208.11999999999998,435.38 207.5,359.05 207.95,343.87 C 207.98,342.84000000000003 212.82,339.61 221.25,334.99 C 228.54,331.0 235,327.11 235,327.11 C 235,327.11 238.07000000000002,325.2 241.21,323.64 C 244.35,322.08 247.44000000000003,320.16999999999996 248.08,319.4 C 248.72,318.63 250.09,318 251.12,318 C 252.16,318 253,317.55 253,317 C 253,316.45 253.52,316 254.16,316 C 254.79,316 256.70000000000005,314.94 258.41,313.64 C 260.11,312.34999999999997 262.4,311.0 263.51,310.65 C 264.61,310.29999999999995 267.92,308.44 270.85,306.51 C 273.78000000000003,304.58 276.49,303 276.49,303 C 276.49,303 280.22,300.99 292,294.04 C 300.3,289.13 321.89,277.14000000000004 323.25,276.67 C 324.21,276.33000000000004 325,275.65 325,275.14 C 325,274.63 326.69,273.47999999999996 328.75,272.58 C 330.81,271.68 334.52,269.62 337,267.99 C 339.48,266.37 342.4,264.63 343.51,264.14 C 344.61,263.64 347.99,261.77000000000004 351.01,259.98 C 354.03,258.18 358.52,255.59 361,254.22 C 363.48,252.85 367.3,250.67000000000002 369.5,249.37 C 371.7,248.06 374.85,246.29000000000002 376.5,245.43 C 378.15,244.57 381.14,242.88 383.15,241.68 C 393.14,235.72 399.91999999999996,232 400.83,232 C 401.38,232 402.17,231.16 402.17,231.16 C 402.17,231.16 406.1,228.38 410.5,226 C 414.9,223.63 419,221.07 419,221.07 C 419,221.07 420.62,219.89 422,219.2 C 424.82,217.78 431.07,214.17 439.68,209.01 C 442.88,207.09 446.18,205.17 447,204.75 C 447.82,204.32 449.85,203.10000000000002 451.5,202.02 C 453.15,200.94 456.06,199.36 457.96,198.49 C 459.87,197.63 461.96,196.2 461.96,196.2 C 462.68,195.25 474.05,188.35000000000002 477.1,187.02 C 478.42,186.45000000000002 481.3,184.85 483.5,183.47 C 485.7,182.09 488.62,180.43 490,179.78 C 491.38,179.14000000000001 493.25,177.99 494.17,177.22 C 495.58000000000004,176.05 521.93,175.85 664.17,175.9 C 756.75,175.94 833.25,175.98 833.25,175.98 C 833.25,175.98 834.0,190.74 834.01,208.75 C 834.01,208.75 834.02,241.5 834.02,241.5 C 834.02,241.5 814.26,260.86 814.26,260.86 C 803.39,271.51 782.74,291.76 768.37,305.86 C 754.0,319.96000000000004 740.5,333.07 738.37,335 C 738.37,335 734.5,338.5 734.5,338.5 C 734.5,338.5 715,338.74 715,338.74 C 704.27,338.87 666.7,339.1 631.5,339.24 C 631.5,339.24 567.5,339.5 567.5,339.5 C 567.5,339.5 564.38,341.73 564.38,341.73 C 562.66,342.95000000000005 560.1899999999999,344.41 558.88,344.97 C 557.57,345.54 555.61,346.56 554.51,347.25 C 543.58,354.13 538.49,357 538.49,357 C 538.49,357 535.09,358.8 531.5,361 C 527.91,363.2 524.49,365 524.49,365 C 524.49,365 520.86,367.02 517,369.5 C 513.14,371.98 509.58,374 509.58,374 C 509.58,374 504.64,376.7 499.08,380 C 493.52,383.3 488.53000000000003,386 487.99,386 C 487.44,386 487,386.83 487,386.83 C 487,386.83 485.76,388.3 484.25,389.08 C 482.74,389.85999999999996 481,391 481,391 C 481,391 478.48,392.54 476,393.8 C 469.11,397.33 464.13000000000005,400.09000000000003 455.97,404.92 C 451.86,407.35 444.9,411.47 440.5,414.06 C 436.1,416.66 429.02,420.86 424.77,423.39 C 420.51,425.93 416.58,428 416.02,428 C 415.46,428 415,428.88 415,428.88 C 415,428.88 414.21,430.02 413.25,430.32 C 411.3,430.94 405.9,433.99 386,445.7 C 378.57,450.07 370.02,454.96 367,456.56 C 363.98,458.17 361,460.01 361,460.01 C 361,460.01 355.1,463.64000000000004 348.5,467.42 C 341.9,471.2 336,474.9 336,474.9 C 336,474.9 333.86,476.4 331.86,477.5 C 329.85,478.6 322.88,482.62 316.36,486.42 C 304.97,493.07 292.09,499.95000000000005 290.96,499.98 C 290.96,499.98 286.60999999999996,497.21999999999997 281.96,493.82 C 281.96,493.82 281.96,493.82 281.96,493.82 Z" style="fill-opacity:1.0;fill:rgb(252, 252, 252)" /></g><g id="g_4" transform="matrix(1.0, 0.0, 0.0, 1.0, 0.0, 0.0)" style="fill-opacity:1.0;fill:rgb(252, 252, 252)"><path d="M 413.6,841.16 C 413.27000000000004,840.64 413.0,759.8 412.99,661.52 C 412.99,661.52 412.98,482.84 412.98,482.84 C 412.98,482.84 415.24,480.95 415.24,480.95 C 416.48,479.92 418.28,479.03 418.28,479.03 C 418.96,479.0 434.84000000000003,469.94 445.85,463.3 C 447.86,462.09000000000003 450.18,460.77 451,460.38 C 451.82,459.99 454.38,458.39 456.68,456.83 C 458.98,455.27 461.35,454 461.35,454 C 461.35,454 465.73,451.64 470.49,448.75 C 475.24,445.86 480.78000000000003,442.52 482.81,441.32 C 491.81,435.99 493.59,434.92 495,433.99 C 496.35,433.1 499.37,431.4 514,423.25 C 516.48,421.87 519.17,420.24 520,419.62 C 521.46,418.53000000000003 522.42,417.96000000000004 529.89,413.79 C 531.87,412.69 535.4399999999999,410.47999999999996 537.8,408.89 C 540.17,407.3 542.73,406 543.49,406 C 544.26,406 545.1400000000001,405.59 545.44,405.09 C 546.08,404.06 565.54,392.44 576,386.84 C 577.92,385.81 580.2700000000001,384.43 581.2,383.77 C 582.1400000000001,383.10999999999996 583.21,382.87 583.58,383.25 C 584.34,384.0 584.3499999999999,389.34000000000003 584.05,536 C 583.93,594.02 584.0899999999999,652.08 584.41,665 C 584.7199999999999,677.92 585.27,699.87 585.62,713.76 C 585.62,713.76 586.25,739.02 586.25,739.02 C 586.25,739.02 582.46,742.6 582.46,742.6 C 580.38,744.5600000000001 577.73,746.58 576.59,747.08 C 575.44,747.59 573.83,748.44 573,748.98 C 568.99,751.61 547.54,764 547.54,764 C 547.54,764 544.58,765.58 541.57,767.5 C 538.5600000000001,769.42 535.57,771 535.57,771 C 535.57,771 532.09,772.8 528.5,775 C 524.91,777.2 521.55,779 521.55,779 C 520.7199999999999,779 510.49,785.52 510.17,786.25 C 510.17,786.25 509.31,787 508.67,787 C 508.03000000000003,787 504.8,788.64 501.5,790.64 C 498.2,792.64 493.93,795.1899999999999 492,796.31 C 490.07,797.43 486.7,799.38 484.5,800.66 C 482.3,801.93 479.82,803.28 479,803.66 C 478.18,804.04 477,805.04 477,805.04 C 477,805.04 473.76000000000005,807.24 470.41,809.11 C 465.11,812.0600000000001 455.39,817.76 434,830.47 C 430.98,832.26 426.35,834.92 423.72,836.37 C 421.09000000000003,837.8100000000001 417.86,839.6999999999999 416.56,840.55 C 415.17,841.4599999999999 413.94,841.7099999999999 413.6,841.16 C 413.6,841.16 413.6,841.16 413.6,841.16 Z" style="fill-opacity:1.0;fill:rgb(252, 252, 252)" /></g></g></g></g></svg>
